X: 39017
T: Swallowtail, The
R: jig
M: 6/8
K: Edorian
|:F|GEE BEE|GEE BAG|FDD ADD|dcd AGF|
GEE BEE|GEE B2c|dcd AGF|GEE 2E:|
A|Bcd e2f|e2f edB|Bcd e2f|edB d2A|
Bcd e2f|e2f edB|dcd AGF|GEE 2E:|

